brandFactory_export/2.Regular/Nieve copo de nieve _2Regular.svg

<?xml version="1.0" encoding="UTF-8"?>
<svg width="24px" height="24px" viewBox="0 0 24 24" version="1.1" xmlns="http://www.w3.org/2000/svg" xmlns:xlink="http://www.w3.org/1999/xlink">
    <title>2.Regular/Nieve copo de nieve _2Regular</title>
    <g id="Symbols" stroke="none" stroke-width="1" fill="none" fill-rule="evenodd">
        <g id="2.Regular/Nieve-copo-de-nieve-_2Regular" fill="#5CB615" fill-rule="nonzero">
            <path d="M22.3495798,12.4739496 C22.6655462,12.3764706 22.9042017,12.0941176 22.9042017,11.7445378 C22.9042017,11.4352941 22.7193277,11.1697479 22.4571429,11.0453782 L23.3983193,10.1042017 C23.7008403,9.80168067 23.7008403,9.31092437 23.3983193,9.00840336 C23.0957983,8.70588235 22.605042,8.70588235 22.302521,9.00840336 L20.3394958,10.9714286 L19.7042017,10.9714286 L19.9495798,10.7260504 C20.2521008,10.4235294 20.2521008,9.93277311 19.9495798,9.6302521 C19.6470588,9.32773109 19.1563025,9.32773109 18.8537815,9.6302521 L17.512605,10.9714286 L13.7411765,10.9714286 L17.5394958,7.17310924 L20.0907563,7.17310924 C20.5210084,7.17310924 20.8672269,6.82689076 20.8672269,6.39663866 C20.8672269,5.9697479 20.5210084,5.62016807 20.0907563,5.62016807 L18.9445378,5.62016807 C19.0218487,5.35798319 18.9680672,5.06218487 18.7596639,4.85714286 C18.5747899,4.67226891 18.3226891,4.61512605 18.0806723,4.65546218 L18.0806723,3.61008403 C18.0806723,3.18319328 17.7344538,2.83361345 17.3042017,2.83361345 C16.8739496,2.83361345 16.5277311,3.17983193 16.5277311,3.61008403 L16.5277311,5.98991597 L12.5915966,9.92605042 L12.5915966,6.23865546 L14.0268908,4.8 C14.3294118,4.49747899 14.3294118,4.00672269 14.0268908,3.70420168 C13.7243697,3.40168067 13.2336134,3.40168067 12.9310924,3.70420168 L12.5915966,4.04369748 L12.5915966,3.35462185 L14.6218487,1.32436975 C14.9243697,1.02184874 14.9243697,0.531092437 14.6218487,0.228571429 C14.3193277,-0.0739495798 13.8285714,-0.0739495798 13.5260504,0.228571429 L12.5478992,1.21008403 C12.4504202,0.890756303 12.1647059,0.655462185 11.8184874,0.655462185 C11.4689076,0.655462185 11.1831933,0.890756303 11.0890756,1.21008403 L10.1109244,0.228571429 C9.80840336,-0.0739495798 9.31764706,-0.0739495798 9.01512605,0.228571429 C8.71260504,0.531092437 8.71260504,1.02184874 9.01512605,1.32436975 L11.0453782,3.35462185 L11.0453782,3.90588235 L10.8403361,3.70420168 C10.5378151,3.40168067 10.0470588,3.40168067 9.74453782,3.70420168 C9.44201681,4.00672269 9.44201681,4.49747899 9.74453782,4.8 L11.0453782,6.10084034 L11.0453782,9.87226891 L7.24705882,6.07394958 L7.24705882,3.60672269 C7.24705882,3.17983193 6.90084034,2.8302521 6.47058824,2.8302521 C6.04033613,2.8302521 5.69411765,3.17647059 5.69411765,3.60672269 L5.69411765,4.66890756 C5.43193277,4.59159664 5.1394958,4.6487395 4.93109244,4.85378151 C4.72268908,5.06218487 4.66890756,5.35462185 4.74621849,5.61680672 L3.68403361,5.61680672 C3.25378151,5.61680672 2.90756303,5.96302521 2.90756303,6.39327731 C2.90756303,6.82016807 3.25378151,7.1697479 3.68403361,7.1697479 L6.1512605,7.1697479 L9.94957983,10.9680672 L6.25210084,10.9680672 L4.91092437,9.62689076 C4.60840336,9.32436975 4.11764706,9.32436975 3.81512605,9.62689076 C3.51260504,9.92941176 3.51260504,10.4201681 3.81512605,10.7226891 L4.0605042,10.9680672 L3.28739496,10.9680672 L1.32436975,9.00504202 C1.02184874,8.70252101 0.531092437,8.70252101 0.228571429,9.00504202 C-0.0739495798,9.30756303 -0.0739495798,9.79831933 0.228571429,10.1008403 L1.17310924,11.0420168 C0.91092437,11.1663866 0.722689076,11.4285714 0.722689076,11.7411765 C0.722689076,12.0907563 0.957983193,12.3764706 1.27731092,12.4705882 L0.228571429,13.5193277 C-0.0739495798,13.8218487 -0.0739495798,14.312605 0.228571429,14.6151261 C0.379831933,14.7663866 0.578151261,14.8436975 0.776470588,14.8436975 C0.974789916,14.8436975 1.17310924,14.7663866 1.32436975,14.6151261 L3.42184874,12.5176471 L4.11092437,12.5176471 L3.81176471,12.8168067 C3.5092437,13.1193277 3.5092437,13.610084 3.81176471,13.912605 C3.96302521,14.0638655 4.16134454,14.1378151 4.35966387,14.1378151 C4.55798319,14.1378151 4.75630252,14.0638655 4.90756303,13.912605 L6.30252101,12.5176471 L9.98991597,12.5176471 L6.05042017,16.4571429 L3.67058824,16.4571429 C3.24033613,16.4571429 2.89411765,16.8033613 2.89411765,17.2336134 C2.89411765,17.6605042 3.24033613,18.010084 3.67058824,18.010084 L4.71596639,18.010084 C4.67563025,18.2487395 4.73277311,18.5042017 4.91764706,18.6890756 C5.06890756,18.8403361 5.26722689,18.9176471 5.46554622,18.9176471 C5.5394958,18.9176471 5.61008403,18.897479 5.68067227,18.8739496 L5.68067227,20.0235294 C5.68067227,20.4504202 6.02689076,20.8 6.45714286,20.8 C6.88739496,20.8 7.23361345,20.4537815 7.23361345,20.0235294 L7.23361345,17.4722689 L11.0319328,13.6739496 L11.0319328,17.4453782 L9.73109244,18.7462185 C9.42857143,19.0487395 9.42857143,19.5394958 9.73109244,19.8420168 C10.0336134,20.1445378 10.5243697,20.1445378 10.8268908,19.8420168 L11.0319328,19.6403361 L11.0319328,20.2756303 L9.00168067,22.3058824 C8.69915966,22.6084034 8.69915966,23.0991597 9.00168067,23.4016807 C9.30420168,23.7042017 9.79495798,23.7042017 10.097479,23.4016807 L11.1092437,22.389916 C11.2336134,22.6521008 11.4957983,22.8369748 11.8084034,22.8369748 C12.1176471,22.8369748 12.3798319,22.6521008 12.5042017,22.389916 L13.5159664,23.4016807 C13.6672269,23.5529412 13.8655462,23.6302521 14.0638655,23.6302521 C14.2621849,23.6302521 14.4605042,23.5563025 14.6117647,23.4016807 C14.9142857,23.0991597 14.9142857,22.6084034 14.6117647,22.3058824 L12.5815126,20.2756303 L12.5815126,19.502521 L12.9210084,19.8420168 C13.0722689,19.9932773 13.2705882,20.0705882 13.4689076,20.0705882 C13.6672269,20.0705882 13.8655462,19.9966387 14.0168067,19.8420168 C14.3193277,19.5394958 14.3193277,19.0487395 14.0168067,18.7462185 L12.5815126,17.307563 L12.5815126,13.6134454 L16.5176471,17.5529412 L16.5176471,20.0201681 C16.5176471,20.4470588 16.8638655,20.7966387 17.2941176,20.7966387 C17.7243697,20.7966387 18.0705882,20.4504202 18.0705882,20.0201681 L18.0705882,18.887395 C18.1142857,18.8941176 18.1579832,18.9142857 18.2016807,18.9142857 C18.4,18.9142857 18.5983193,18.8369748 18.7495798,18.6857143 C18.9344538,18.5008403 18.994958,18.2453782 18.9512605,18.0067227 L20.0806723,18.0067227 C20.5109244,18.0067227 20.8571429,17.6605042 20.8571429,17.2302521 C20.8571429,16.8 20.5109244,16.4537815 20.0806723,16.4537815 L17.6168067,16.4537815 L13.6773109,12.5142857 L17.4487395,12.5142857 L18.8436975,13.9092437 C18.994958,14.0605042 19.1932773,14.1344538 19.3915966,14.1344538 C19.589916,14.1344538 19.7882353,14.0605042 19.9394958,13.9092437 C20.2420168,13.6067227 20.2420168,13.1159664 19.9394958,12.8134454 L19.6403361,12.5142857 L20.1915966,12.5142857 L22.2890756,14.6117647 C22.4403361,14.7630252 22.6386555,14.8403361 22.8369748,14.8403361 C23.0352941,14.8403361 23.2336134,14.7630252 23.3848739,14.6117647 C23.687395,14.3092437 23.687395,13.8184874 23.3848739,13.5159664 L22.3495798,12.4739496 Z" id="Path"></path>
        </g>
    </g>
</svg>

<svg width="24" height="24" viewBox="0 0 24 24" xmlns="http://www.w3.org/2000/svg"><path d="M22.35 12.474a.768.768 0 00.554-.73.776.776 0 00-.447-.699l.941-.94a.775.775 0 00-1.095-1.097l-1.964 1.963h-.635l.246-.245a.775.775 0 00-1.096-1.096l-1.341 1.341H13.74l3.798-3.798h2.552a.777.777 0 000-1.553h-1.146a.76.76 0 00-.185-.763.764.764 0 00-.68-.202V3.61a.777.777 0 00-1.552 0v2.38l-3.936 3.936V6.24L14.027 4.8a.775.775 0 00-1.096-1.096l-.34.34v-.69l2.03-2.03A.775.775 0 0013.527.23l-.978.981a.767.767 0 00-.73-.555.761.761 0 00-.729.555L10.111.23a.775.775 0 00-1.096 1.095l2.03 2.03v.552l-.205-.202A.775.775 0 009.745 4.8l1.3 1.3v3.772L7.247 6.074V3.607a.777.777 0 00-1.553 0v1.062a.77.77 0 00-.763.185.762.762 0 00-.185.763H3.684a.777.777 0 000 1.553h2.467l3.799 3.798H6.252L4.911 9.627a.775.775 0 00-1.096 1.096l.246.245h-.774L1.324 9.005A.775.775 0 00.23 10.101l.944.941a.761.761 0 00.104 1.429L.23 13.519a.775.775 0 001.095 1.096l2.098-2.097h.689l-.3.299a.775.775 0 001.097 1.096l1.395-1.395H9.99l-3.94 3.94H3.67a.777.777 0 000 1.553h1.046a.767.767 0 00.202.678c.15.151.35.229.548.229.073 0 .144-.02.215-.044v1.15a.777.777 0 001.553 0v-2.552l3.798-3.798v3.771l-1.3 1.301a.775.775 0 001.095 1.096l.205-.202v.636l-2.03 2.03a.775.775 0 001.095 1.096l1.012-1.012a.773.773 0 00.7.447c.309 0 .57-.185.695-.447l1.012 1.012a.774.774 0 101.096-1.096l-2.03-2.03v-.773l.339.339a.774.774 0 101.096-1.096l-1.435-1.438v-3.695l3.936 3.94v2.467a.777.777 0 001.553 0v-1.133c.043.007.087.027.13.027a.757.757 0 00.75-.908h1.13c.43 0 .776-.345.776-.776a.775.775 0 00-.776-.776h-2.464l-3.94-3.94h3.772l1.395 1.395a.77.77 0 00.548.225.775.775 0 00.548-1.321l-.3-.299h.552l2.097 2.098a.774.774 0 101.096-1.096l-1.035-1.042z" fill="#5CB615" fill-rule="nonzero"/></svg>
